X:448
T: ES GING WOHL UEBER DIE HAIDE
N: F0838
O: Europa, Mitteleuropa, Deutschland
R: erzaehlendes Volks - Lied, Ballade; Tod
M: 6/4
L: 1/8
K: G
G2 | G4G2B2B2B2 | d4ded4
d2 | e2e2e2e4e2 | g6z4
g2 | a4A2A2A2A2 | B6f4
f2 | f4B2d4B2 | d8z2

